X: 24914
T: Maid At The Well, The
R: jig
M: 6/8
K: Amajor
|:AFE EFE|ABc d2f|ecA ABc|BAF FEF|
AFE EFE|ABc d2f|ecA ABc|1 BAA A2F:|2 BAA A2a||
|:aee ece|aec d2f|ecA ABc|BAF FEF|
[1 aee ece|aec d2f|ecA ABc|BAA A2a:|
[2 AFE EFE|ABc d2f|ecA ABc|BAA A2F||

